X:33
T:The Cape Breton Fiddler's Welcome to the Shetland Isles.
R:Reel
C:W. Hunter (1982)
N:Play AABBAABB', where B' is B with the coda
A:Cape Breton
B:Sandy Macintyre's lesson book
Z:WM - 1 Dec 1996
M:4/4
K:A
AF |: E>C C/C/C ~C2 B,C | A,B,CE ~FECE | F>B B/B/B BcBA |
Bffe f2fg | a>c c/c/c e>A A/A/A | cBAF E>C C/C/C |
FGAF Eaaf |1 ecBc A2AF :|2 ecBc A2fg |
|: a>e e/e/e efed | c>e e/e/e fece | b>f f/f/f fgfe |
defd B2"Last time to Coda [*]" fg | a>e e/e/e efed | c>e e/e/e fece |1
fdge afed | cdBc A2fg :|2 fdec dBcA | Bagf eAGF |
"[*] Coda"ed | cdBc ABGA | FGEF DECD | B,CDE F^ABc | defg a4 ||
